X:227
T: Die verkaufte Muellerin
N: Q0086Z
O: Mitteleuropa, Deutschland (BRD) , Rheinland
R: Ballade, Menschenhandel, Rettung, Hinrichtung
M: 4/4
L: 1/8
K: G
G2 | G2B2d2B2 | B3AA2
A2 | A2e2d2c2 | c3BB2
d2 | d2d2B2G2 | c2e2e2
g2 | f2e2d2B2 | A4G2

@@@ Tune index: 1282
